X:1
T:Je suis quasi
T:Jean de Castro
T:Source : La fleur des chansons à 3---Louvain---P.Phalèse---1574. Editor : André Vierendeels (18/09/18) Notes : Original clefs : G2, C2, C3 Original note values have been halved Editorial accidentals above the staff 
T:Je suis quasi
T:©
T:©
T:©
T:©
T:©
C:Jean de Castro
Z:©
%%score [ 1 2 3 ]
L:1/8
Q:1/4=96
M:2/2
K:F
V:1 treble nm="Soprano" snm="S"
V:2 treble nm="Alto" snm="A"
V:3 treble-8 nm="Tenor" snm="T"
V:1
 G2 dB Adcf | ecGB AGAF | GGAB ccAA | F2 z f dd B2 | z G A2 F c2 B | c3 A B2 A2 | de f2 e2 cA | %7
w: Je suis qua- si, ie suis qua-|si, ie suis qua- si prest d'en- ra-|ger, prest d'en- ra- ger, prest d'en- ra-|ger, prest d'en- ra- ger|de me voir ain- si|sans pe- cu- ne,|sans pe- cu- ne, sans pe-|
 B2 A c2 c d2 | GGGG c2 A2 | GA B2 z F G2- | Gc z c d2 dc/B/ | AG A2 G2 z d | d3 c defd | %13
w: cu- ne, sans pe- cu-|ne, il m'est bien for- ce|d'en- ga- ger ma ro-|* be, ma ro- be et si|n'en ay qu'u- ne, je|mau- dis mil- le fois for-|
 ^c2 d2 z AAA | =Bcdf e2 f2 | z4 d4 | B2 G2 cc A2 | B2 B2 A2 A2- | A=Bc d2 cdd | e2 f d2 B2 G- | %20
w: tu- ne, ie mau- dis|mil- le fois for- tu- ne,|O|be- ne- di- ci- te|Ma- ri- a, car|_ pour vi- vr'en tel- le ran-|cu- ne, le dia- ble,|
 G g2 e2 c2 f- | f d2 B G2 d2 | d2 ^c2 d2 z d- | d B2 G2 g2 e- | e c2 f2 d2 B | G2 d2 d2 ^c2 | %26
w: _ le dia- ble, le|_ dia- ble bien me|ma- ri- a, le|_ dia- ble, le dia-|* ble, le dia- ble|bien me ma- ri-|
 d4 z d B2 | A2 z d B2 A2 | d3 d B2 B2 | A8 |] %30
w: a, le dia-|ble, le dia- ble|bien me ma- ri-|a.|
V:2
 G2 GG FFED | E2 z D C=B, C2 | z EFG A2 z c | AA F2 z F G2 | E2 F2 A G2 F- | FE F2 z G F2 | %6
w: Je suis qua- si, ie suis qua-|si, ie suis qua- si|prest d'en- ra- ger, prest|d'en- ra- ger de me|voir ain- si sans pe-|* cu- ne, pe- cu-|
 Fc B2 c2 AF | G2 F2 Ac B2 | c2 z C CC F2 | E2 D2 EF z E | E2 FA B2 BG/G/ | ^FG F2 GG G2- | %12
w: ne, pe- cu- ne, sans pe-|cu- ne, sans pe- cu-|ne, il m'est bien for-|ce d'en- ga- ger ma|ro- be, ma ro- be et si|n'en ay qu'u- ne, je mau-|
 GFGA Bc B2 | A2 F2 F3 E |"^b" ^FGBA c2 A2 | A4 F2 D2 | GG E2 z2 ^F2 | G4 ^F4 |"^b" z ^FGA BGAB | %19
w: * dis mil- le fois for- tu-|ne, ie mau- dis|mil- le fois for- tu- ne,|O be- ne-|di- ci- te Ma-|ri- a,|car pour vi- vr'en tel- le ran-|
 c2 AF D2 dd | B2 G2 z c A2 | F4 z G2 D | F2 E2 DA F2 | D2 d2 B2 G2 | z c A2 F4 | z G2 D F2 E2 | %26
w: cu- ne, le dia- ble, le|dia- ble, le dia-|ble bien me|ma- ri- a, le dia-|ble, le dia- ble,|le dia- ble,|bien me ma- ri-|
 DD B,2 G,2 z G | F2 D2 z G ^F2 | G B2 B G2 G2 | ^F8 |] %30
w: a, le dia- ble, le|dia- ble, le dia-|ble bien me ma- ri-|a.|
V:3
 z4 d2 AB | c2 z B FG F2 | c2 AG F4 | z fdd B2 z G | c2 F f2 efd | c2 F2 z4 | Bc d2 c2 z2 | %7
w: Je suis qua-|si, ie suis qua- si|prest d'en- ra- ger,|prest d'en- ra- ger de|me voir ain- si sans pe-|cu- ne,|sans pe- cu- ne,|
 z4 fe d2 | c4 z FFF | c2 B2 cd c2 | z c f2 B B2 c | de d2 G4 | z8 | z2 d2 d3 A | dcgd a2 d2 | %15
w: sans pe- cu-|ne, il m'est bien|for- ce d'en- ga- ger|ma ro- be et si|n'en ay qu'u- ne,||ie mau- dis|mil- le fois for- tu- ne,|
 z2 d4 B2 | G2 cc A2 d2 | G4 d4 | z def gefg | c2 dd B2 G2 | g2 e2 c2 f2 | d2 B2 c2 G2 | %22
w: O be-|ne di- ci- te Ma-|ri- a,|car pour vi- vr'en tel- le ran-|cu- ne, le dia- ble,|le dia- ble, le|dia- ble bien me|
 A2 A2 d2 d2 | B2 G2 g2 e2 | c2 f2 d2 B2 | c2 G2 A2 A2 | d2 z d B2 G2 | z d B2 Gg d2 | %28
w: ma- ri- a, le|dia- ble, le dia-|ble, le dia- ble|bien me ma- ri-|a, le dia- ble,|le dia- ble, le dia-|
 G g2 G G2 G2 | d8 |] %30
w: ble bien me ma- ri-|a.|

